X:117
T:Sick, sick and very sick
M:C
L:1/8
K:G
%%score 1 2
V:1 clef-treble
V:2 clef-bass octave=-1
V:1
[B,D]3D[B,G]2[CE]2|[A,F]3GA2[DFA]2|[DGd]2d2[EG]2c2|[DG(B]4[e)EG]4|
w:It be-fell at Mar-tin-mas, When weather* wax-ed cold,*
w:Sick,* sick and ve-ry sick, And sick and like to die; The
V:2
G4E2C2|D6C2|B,4C4|G4C,4|
V:1
[Fd]3c[GB]2(AB)|[Ec]2A2[DF]2D2|[G,DG]2D2G,2C2|[G,B,(D]4[E)G,C]4:||
w:Cap-tain Car said* to his men, We must go take a hold.*
w:sick-est night that* I a bode, Good Lord have mercy on me.*
V:2
D4E4|A,4D4|B,4E2x2&x4C4|G,4C,4:||

